app/images/icons/twitter.svg

<?xml version="1.0" encoding="UTF-8" standalone="no"?>
<svg width="54px" height="54px" viewBox="0 0 54 54" version="1.1" xmlns="http://www.w3.org/2000/svg" xmlns:xlink="http://www.w3.org/1999/xlink">
    <!-- Generator: Sketch 47.1 (45422) - http://www.bohemiancoding.com/sketch -->
    <title>Twitter</title>
    <desc>Created with Sketch.</desc>
    <defs>
        <path d="M1269,671 L1303,671 C1304.10457,671 1305,671.895431 1305,673 L1305,707 C1305,708.104569 1304.10457,709 1303,709 L1269,709 C1267.89543,709 1267,708.104569 1267,707 L1267,673 L1267,673 C1267,671.895431 1267.89543,671 1269,671 L1269,671 Z M1297.64624,682.311707 C1296.77696,682.70439 1295.84144,682.969268 1294.85984,683.087805 C1295.86208,682.478049 1296.63056,681.512195 1296.99296,680.36 C1296.05552,680.925366 1295.01776,681.33561 1293.91232,681.557073 C1293.02768,680.599024 1291.76672,680 1290.37136,680 C1287.69248,680 1285.52048,682.207317 1285.52048,684.930244 C1285.52048,685.316098 1285.5632,685.692195 1285.64624,686.053659 C1281.61424,685.847805 1278.0392,683.885366 1275.6464,680.902439 C1275.2288,681.630244 1274.98976,682.477073 1274.98976,683.381463 C1274.98976,685.091707 1275.84608,686.600976 1277.14784,687.484878 C1276.35296,687.459024 1275.60464,687.237073 1274.9504,686.867805 C1274.94992,686.888293 1274.94992,686.909268 1274.94992,686.930244 C1274.94992,689.318537 1276.62224,691.310732 1278.84176,691.76439 C1278.43472,691.876585 1278.00608,691.937073 1277.56352,691.937073 C1277.25056,691.937073 1276.94672,691.906341 1276.65056,691.848293 C1277.26832,693.806829 1279.05968,695.232683 1281.18224,695.272195 C1279.52192,696.594634 1277.43056,697.382927 1275.15728,697.382927 C1274.76608,697.382927 1274.37968,697.359512 1274,697.313659 C1276.14752,698.713171 1278.69728,699.52878 1281.43664,699.52878 C1290.36032,699.52878 1295.23952,692.016585 1295.23952,685.501463 C1295.23952,685.287805 1295.2352,685.074634 1295.22608,684.862927 C1296.1736,684.169268 1296.99632,683.300488 1297.64624,682.311707 Z" id="path-1"></path>
        <filter x="-31.6%" y="-31.6%" width="163.2%" height="163.2%" filterUnits="objectBoundingBox" id="filter-2">
            <feOffset dx="0" dy="0" in="SourceAlpha" result="shadowOffsetOuter1"></feOffset>
            <feGaussianBlur stdDeviation="4" in="shadowOffsetOuter1" result="shadowBlurOuter1"></feGaussianBlur>
            <feColorMatrix values="0 0 0 0 0   0 0 0 0 0.768627451   0 0 0 0 1  0 0 0 0.5 0" type="matrix" in="shadowBlurOuter1"></feColorMatrix>
        </filter>
    </defs>
    <g id="Design" stroke="none" stroke-width="1" fill="none" fill-rule="evenodd">
        <g id="Drimz2-fix" transform="translate(-1259.000000, -663.000000)">
            <g id="Twitter">
                <use fill="black" fill-opacity="1" filter="url(#filter-2)" xlink:href="#path-1"></use>
                <use fill="#FFFFFF" fill-rule="evenodd" xlink:href="#path-1"></use>
            </g>
        </g>
    </g>
</svg>

<svg width="54" height="54" xmlns="http://www.w3.org/2000/svg" xmlns:xlink="http://www.w3.org/1999/xlink"><defs><path d="M1269 671h34a2 2 0 0 1 2 2v34a2 2 0 0 1-2 2h-34a2 2 0 0 1-2-2v-34a2 2 0 0 1 2-2zm28.646 11.312a9.533 9.533 0 0 1-2.786.776 4.926 4.926 0 0 0 2.133-2.728 9.618 9.618 0 0 1-3.08 1.197 4.81 4.81 0 0 0-3.542-1.557c-2.679 0-4.85 2.207-4.85 4.93 0 .386.042.762.125 1.124-4.032-.206-7.607-2.169-10-5.152a4.966 4.966 0 0 0-.656 2.48c0 1.71.856 3.219 2.158 4.103a4.779 4.779 0 0 1-2.198-.617v.062c0 2.389 1.672 4.38 3.892 4.834a4.804 4.804 0 0 1-2.191.084c.617 1.959 2.409 3.385 4.531 3.424a9.634 9.634 0 0 1-7.182 2.042 13.57 13.57 0 0 0 7.437 2.215c8.923 0 13.803-7.512 13.803-14.028 0-.213-.005-.426-.014-.638a9.916 9.916 0 0 0 2.42-2.551z" id="b"/><filter x="-31.6%" y="-31.6%" width="163.2%" height="163.2%" filterUnits="objectBoundingBox" id="a"><feOffset in="SourceAlpha" result="shadowOffsetOuter1"/><feGaussianBlur stdDeviation="4" in="shadowOffsetOuter1" result="shadowBlurOuter1"/><feColorMatrix values="0 0 0 0 0 0 0 0 0 0.768627451 0 0 0 0 1 0 0 0 0.5 0" in="shadowBlurOuter1"/></filter></defs><g transform="translate(-1259 -663)" fill="none" fill-rule="evenodd"><use fill="#000" filter="url(#a)" xlink:href="#b"/><use fill="#FFF" xlink:href="#b"/></g></svg>
